src/assets/filled/VolumeSlash.svg

<svg width="24" height="24" viewBox="0 0 24 24"  xmlns="http://www.w3.org/2000/svg">
<path d="M18 16.7501C17.84 16.7501 17.69 16.7001 17.55 16.6001C17.22 16.3501 17.15 15.8801 17.4 15.5501C18.66 13.8701 18.93 11.6401 18.12 9.71007C17.96 9.33007 18.14 8.89007 18.52 8.73007C18.9 8.57007 19.34 8.75007 19.5 9.13007C20.52 11.5501 20.17 14.3601 18.6 16.4601C18.45 16.6501 18.23 16.7501 18 16.7501Z" />
<path d="M19.8301 19.25C19.6701 19.25 19.5201 19.2 19.3801 19.1C19.0501 18.85 18.9801 18.38 19.2301 18.05C21.3701 15.2 21.8401 11.38 20.4601 8.08995C20.3001 7.70995 20.4801 7.26995 20.8601 7.10995C21.2401 6.94996 21.6801 7.12996 21.8401 7.50996C23.4301 11.29 22.8901 15.67 20.4301 18.95C20.2901 19.15 20.0601 19.25 19.8301 19.25Z" />
<path d="M14.04 12.96C14.67 12.33 15.75 12.78 15.75 13.67V16.6C15.75 18.32 15.13 19.61 14.02 20.23C13.57 20.48 13.07 20.6 12.55 20.6C11.75 20.6 10.89 20.33 10.01 19.78L9.36998 19.38C8.82998 19.04 8.73998 18.28 9.18998 17.83L14.04 12.96Z" />
<path d="M21.77 2.22988C21.47 1.92988 20.98 1.92988 20.68 2.22988L15.73 7.17988C15.67 5.57988 15.07 4.37988 14.01 3.78988C12.89 3.16988 11.46 3.32988 10 4.23988L7.09 6.05988C6.89 6.17988 6.66 6.24988 6.43 6.24988H5.5H5C2.58 6.24988 1.25 7.57988 1.25 9.99988V13.9999C1.25 16.4199 2.58 17.7499 5 17.7499H5.16L2.22 20.6899C1.92 20.9899 1.92 21.4799 2.22 21.7799C2.38 21.9199 2.57 21.9999 2.77 21.9999C2.97 21.9999 3.16 21.9199 3.31 21.7699L21.77 3.30988C22.08 3.00988 22.08 2.52988 21.77 2.22988Z" />
</svg>

<?xml version="1.0" encoding="UTF-8"?>
<svg width="24" height="24" viewBox="0 0 24 24" xmlns="http://www.w3.org/2000/svg">
 <path d="m18 16.75c-0.16 0-0.31-0.05-0.45-0.15-0.33-0.25-0.4-0.72-0.15-1.05 1.26-1.68 1.53-3.91 0.72-5.84-0.16-0.38 0.02-0.82 0.4-0.98s0.82 0.02 0.98 0.4c1.02 2.42 0.67 5.23-0.9 7.33-0.15 0.19-0.37 0.29-0.6 0.29z"/>
 <path d="m19.83 19.25c-0.16 0-0.31-0.05-0.45-0.15-0.33-0.25-0.4-0.72-0.15-1.05 2.14-2.85 2.61-6.67 1.23-9.96-0.16-0.38 0.02-0.82 0.4-0.98 0.38-0.15999 0.82 0.02001 0.98 0.40001 1.59 3.78 1.05 8.16-1.41 11.44-0.14 0.2-0.37 0.3-0.6 0.3z"/>
 <path d="m14.04 12.96c0.63-0.63 1.71-0.18 1.71 0.71v2.93c0 1.72-0.62 3.01-1.73 3.63-0.45 0.25-0.95 0.37-1.47 0.37-0.8 0-1.66-0.27-2.54-0.82l-0.64002-0.4c-0.54-0.34-0.63-1.1-0.18-1.55l4.85-4.87z"/>
 <path d="m21.77 2.2299c-0.3-0.3-0.79-0.3-1.09 0l-4.95 4.95c-0.06-1.6-0.66-2.8-1.72-3.39-1.12-0.62-2.55-0.46-4.01 0.45l-2.91 1.82c-0.2 0.12-0.43 0.19-0.66 0.19h-1.43c-2.42 0-3.75 1.33-3.75 3.75v4c0 2.42 1.33 3.75 3.75 3.75h0.16l-2.94 2.94c-0.3 0.3-0.3 0.79 0 1.09 0.16 0.14 0.35 0.22 0.55 0.22s0.39-0.08 0.54-0.23l18.46-18.46c0.31-0.3 0.31-0.78 0-1.08z"/>
</svg>
